X:4
T:Gentle Maiden
Z: id:dc-waltz-10
M:3/4
L:1/8
K:G Major
D2|G3 A G2|F2 E2 D2|d4 d2|e3 f g2|d3 c B2|A4 G2|E6|F3 E D2|!
G3 A G2|F2 E2 D2|d4 d2|e3 f g2|d3 c B2|A4-A G|G6-|G4:|!
B2|d2 e2 f2|g3 g g2|g3 a a2|g3 f e2|d3 c B2|A4 G2|E6|F3 E D2|!
G3 A G2|F2 E2 D2|d4 d2|e3 f g2|d3 c B2|A4-A G|G6-|G4:|!

